icons/svg/road_shields/h_white_pillow_4_road_shield.svg

<?xml version="1.0" encoding="UTF-8" standalone="no"?>
<!-- Generator: Adobe Illustrator 16.0.4, SVG Export Plug-In . SVG Version: 6.00 Build 0)  -->

<svg
   xmlns:dc="http://purl.org/dc/elements/1.1/"
   xmlns:cc="http://creativecommons.org/ns#"
   xmlns:rdf="http://www.w3.org/1999/02/22-rdf-syntax-ns#"
   xmlns:svg="http://www.w3.org/2000/svg"
   xmlns="http://www.w3.org/2000/svg"
   xmlns:sodipodi="http://sodipodi.sourceforge.net/DTD/sodipodi-0.dtd"
   xmlns:inkscape="http://www.inkscape.org/namespaces/inkscape"
   version="1.1"
   id="Слой_1"
   x="0px"
   y="0px"
   width="36"
   height="27"
   viewBox="0 0 36 27"
   enable-background="new 0 0 17.143 17.17"
   xml:space="preserve"
   inkscape:version="0.91 r13725"
   sodipodi:docname="h_white_pillow_4_road_shield.svg"><metadata
     id="metadata13"><rdf:RDF><cc:Work
         rdf:about=""><dc:format>image/svg+xml</dc:format><dc:type
           rdf:resource="http://purl.org/dc/dcmitype/StillImage" /><dc:title></dc:title></cc:Work></rdf:RDF></metadata><defs
     id="defs11" /><sodipodi:namedview
     pagecolor="#ffffff"
     bordercolor="#666666"
     borderopacity="1"
     objecttolerance="10"
     gridtolerance="10"
     guidetolerance="10"
     inkscape:pageopacity="0"
     inkscape:pageshadow="2"
     inkscape:window-width="1920"
     inkscape:window-height="1006"
     id="namedview9"
     showgrid="false"
     inkscape:zoom="16"
     inkscape:cx="9.756536"
     inkscape:cy="15.157875"
     inkscape:window-x="1920"
     inkscape:window-y="0"
     inkscape:window-maximized="1"
     inkscape:current-layer="Слой_1" /><path
     style="color:#000000;clip-rule:evenodd;display:inline;overflow:visible;visibility:visible;opacity:0.69800002;isolation:auto;mix-blend-mode:normal;color-interpolation:sRGB;color-interpolation-filters:linearRGB;solid-color:#000000;solid-opacity:1;fill:#515151;fill-opacity:1;fill-rule:evenodd;stroke:none;stroke-width:2.11525011;stroke-linecap:butt;stroke-linejoin:miter;stroke-miterlimit:4;stroke-dasharray:none;stroke-dashoffset:0;stroke-opacity:1;marker:none;color-rendering:auto;image-rendering:auto;shape-rendering:auto;text-rendering:auto;enable-background:accumulate"
     d="M 18.112106,3.9613246 C 7.8307876,3.8816513 1.2939474,7.4226443 1.2939474,7.4226443 0.79328523,7.5906946 0.48663799,7.8939882 0.48632803,8.2214314 l 0,10.5588866 c -1.909e-5,0.334532 0.31962031,0.643369 0.83736177,0.809061 0,0 6.6023353,3.450621 16.7678252,3.450621 10.165489,0 16.603098,-3.457042 16.603098,-3.457042 0.507162,-0.16715 0.818777,-0.472518 0.819059,-0.80264 l 0,-10.5588866 c -2.1e-4,-0.332817 -0.316818,-0.6402737 -0.830498,-0.8064925 0,0 -6.331859,-3.3742675 -16.571068,-3.4536143 z"
     id="path4152"
     inkscape:connector-curvature="0"
     sodipodi:nodetypes="sccccsccccs" /><path
     style="color:#000000;clip-rule:evenodd;display:inline;overflow:visible;visibility:visible;opacity:1;isolation:auto;mix-blend-mode:normal;color-interpolation:sRGB;color-interpolation-filters:linearRGB;solid-color:#000000;solid-opacity:1;fill:#ffffff;fill-opacity:1;fill-rule:evenodd;stroke:none;stroke-width:1;stroke-linecap:butt;stroke-linejoin:miter;stroke-miterlimit:4;stroke-dasharray:none;stroke-dashoffset:0;stroke-opacity:1;marker:none;color-rendering:auto;image-rendering:auto;shape-rendering:auto;text-rendering:auto;enable-background:accumulate"
     d="m 1.5699062,8.5456054 c 0,0 6.3011458,-3.5759506 16.5249328,-3.4994994 10.223786,0.076451 16.335255,3.4994994 16.335255,3.4994994 l 0,9.9099976 c 0,0 -6.21378,3.499499 -16.335255,3.499499 -10.1214769,0 -16.5249327,-3.499499 -16.5249327,-3.499499 z"
     id="rect4135"
     inkscape:connector-curvature="0"
     sodipodi:nodetypes="czcczcc" /></svg>

<svg width="36" height="27" viewBox="0 0 36 27" fill="none" xmlns="http://www.w3.org/2000/svg">
<path opacity="0.698" fill-rule="evenodd" clip-rule="evenodd" d="M18.1121 3.96135C7.83079 3.88167 1.29395 7.42267 1.29395 7.42267C0.793285 7.59072 0.486638 7.89401 0.486328 8.22145V18.7803C0.486309 19.1149 0.805948 19.4237 1.32369 19.5894C1.32369 19.5894 7.92602 23.04 18.0915 23.04C28.257 23.04 34.6946 19.583 34.6946 19.583C35.2018 19.4158 35.5134 19.1105 35.5137 18.7803V8.22145C35.5135 7.88864 35.1969 7.58118 34.6832 7.41496C34.6832 7.41496 28.3513 4.04069 18.1121 3.96135V3.96135Z" fill="#515151"/>
<path fill-rule="evenodd" clip-rule="evenodd" d="M1.56991 8.54563C1.56991 8.54563 7.87105 4.96968 18.0948 5.04613C28.3186 5.12258 34.4301 8.54563 34.4301 8.54563V18.4556C34.4301 18.4556 28.2163 21.9551 18.0948 21.9551C7.97336 21.9551 1.56991 18.4556 1.56991 18.4556L1.56991 8.54563Z" fill="white"/>
</svg>
